src/styles/icons/crown.svg

<svg width="20" height="19" fill="current" xmlns="http://www.w3.org/2000/svg"><path d="M0 17h20v2H0v-2ZM0 3l5 3.5L10 0l5 6.5L20 3v12H0V3Zm2 3.841V13h16V6.841l-3.42 2.394L10 3.28 5.42 9.235 2 6.84v.001Z"/></svg>

<svg width="20" height="19" viewBox="0 0 20 19" fill="current" xmlns="http://www.w3.org/2000/svg">
<path d="M0 17H20V19H0V17ZM0 3L5 6.5L10 0L15 6.5L20 3V15H0V3ZM2 6.841V13H18V6.841L14.58 9.235L10 3.28L5.42 9.235L2 6.84V6.841Z" fill="current"/>
</svg>
